germany/municipalities/07235123.svg

<?xml version="1.0" encoding="UTF-8" standalone="no"?>
<!-- Created with Inkscape (http://www.inkscape.org/) -->

<svg
   xmlns:dc="http://purl.org/dc/elements/1.1/"
   xmlns:cc="http://creativecommons.org/ns#"
   xmlns:rdf="http://www.w3.org/1999/02/22-rdf-syntax-ns#"
   xmlns:svg="http://www.w3.org/2000/svg"
   xmlns="http://www.w3.org/2000/svg"
   xmlns:sodipodi="http://sodipodi.sourceforge.net/DTD/sodipodi-0.dtd"
   xmlns:inkscape="http://www.inkscape.org/namespaces/inkscape"
   width="130.5789mm"
   height="158.65759mm"
   viewBox="0 0 130.5789 158.65759"
   version="1.1"
   id="svg865"
   inkscape:version="0.92.5 (2060ec1f9f, 2020-04-08)"
   sodipodi:docname="DEU Schömerich COA.svg">
  <defs
     id="defs859">
    <inkscape:path-effect
       effect="spiro"
       id="path-effect1663"
       is_visible="true" />
    <inkscape:path-effect
       effect="spiro"
       id="path-effect1659"
       is_visible="true" />
    <inkscape:path-effect
       effect="spiro"
       id="path-effect1582"
       is_visible="true" />
    <inkscape:path-effect
       effect="spiro"
       id="path-effect3644"
       is_visible="true" />
    <inkscape:path-effect
       effect="spiro"
       id="path-effect3636"
       is_visible="true" />
    <inkscape:path-effect
       effect="spiro"
       id="path-effect3544"
       is_visible="true" />
    <inkscape:path-effect
       effect="spiro"
       id="path-effect3466"
       is_visible="true" />
    <inkscape:path-effect
       effect="spiro"
       id="path-effect3544-2"
       is_visible="true" />
    <inkscape:path-effect
       effect="spiro"
       id="path-effect3644-8"
       is_visible="true" />
    <inkscape:path-effect
       effect="spiro"
       id="path-effect3644-3"
       is_visible="true" />
    <inkscape:path-effect
       effect="spiro"
       id="path-effect3636-0"
       is_visible="true" />
    <inkscape:path-effect
       effect="spiro"
       id="path-effect1727-0-1"
       is_visible="true" />
    <inkscape:path-effect
       effect="spiro"
       id="path-effect1731-8-3"
       is_visible="true" />
    <inkscape:path-effect
       effect="spiro"
       id="path-effect1727-3"
       is_visible="true" />
    <inkscape:path-effect
       effect="spiro"
       id="path-effect1731-7"
       is_visible="true" />
    <inkscape:path-effect
       effect="spiro"
       id="path-effect841-8"
       is_visible="true" />
    <inkscape:path-effect
       effect="spiro"
       id="path-effect1582-9"
       is_visible="true" />
  </defs>
  <sodipodi:namedview
     id="base"
     pagecolor="#ffffff"
     bordercolor="#666666"
     borderopacity="1.0"
     inkscape:pageopacity="0.0"
     inkscape:pageshadow="2"
     inkscape:zoom="1.3224365"
     inkscape:cx="246.76367"
     inkscape:cy="299.8254"
     inkscape:document-units="mm"
     inkscape:current-layer="layer1"
     showgrid="false"
     inkscape:window-width="1920"
     inkscape:window-height="1046"
     inkscape:window-x="-11"
     inkscape:window-y="-11"
     inkscape:window-maximized="1"
     fit-margin-top="0"
     fit-margin-left="0"
     fit-margin-right="0"
     fit-margin-bottom="0"
     inkscape:snap-global="false"
     inkscape:snap-midpoints="true"
     inkscape:snap-smooth-nodes="true" />
  <metadata
     id="metadata862">
    <rdf:RDF>
      <cc:Work
         rdf:about="">
        <dc:format>image/svg+xml</dc:format>
        <dc:type
           rdf:resource="http://purl.org/dc/dcmitype/StillImage" />
        <dc:title />
      </cc:Work>
    </rdf:RDF>
  </metadata>
  <g
     inkscape:label="Ebene 1"
     inkscape:groupmode="layer"
     id="layer1"
     transform="translate(13.225202,170.05348)">
    <path
       style="fill:#ffffff;fill-rule:evenodd;stroke:none;stroke-width:2.11666656;stroke-linecap:round;stroke-linejoin:round;stroke-miterlimit:4;stroke-dasharray:none;stroke-opacity:1"
       inkscape:connector-curvature="0"
       d="m 116.29537,-168.99515 -0.29366,94.538465 c -1.42978,37.540972 -29.679015,61.981434 -63.937458,62.002456 -34.227622,-0.0461 -62.487441,-24.4972 -63.937451,-62.002456 l -0.29367,-94.538465 h 64.229581 z"
       id="path10563-0-6-2-6-7-0"
       sodipodi:nodetypes="ccccccc" />
    <path
       style="opacity:1;fill:#ff0000;fill-opacity:1;fill-rule:evenodd;stroke:#000000;stroke-width:7.99999952;stroke-linecap:round;stroke-linejoin:round;stroke-miterlimit:4;stroke-dasharray:none;stroke-opacity:1;paint-order:fill markers stroke"
       d="M 4 4 L 4.5839844 192.25195 L 488.94141 192.25195 L 489.52734 4 L 246.75781 4 L 4 4 z "
       transform="matrix(0.26458333,0,0,0.26458333,-13.225202,-170.05348)"
       id="rect938" />
    <path
       style="opacity:1;fill:#ff0000;fill-opacity:1;fill-rule:evenodd;stroke:#000000;stroke-width:2.11666632;stroke-linecap:round;stroke-linejoin:round;stroke-miterlimit:4;stroke-dasharray:none;stroke-opacity:1;paint-order:fill markers stroke"
       d="m 52.064249,-110.57189 c -2.526009,0 -5.096367,0.81785 -7.289477,2.07124 -2.064306,1.17978 -3.922355,2.89355 -5.162476,4.92218 -1.161785,1.90048 -1.77927,4.182609 -1.899107,6.406844 -0.08875,1.64723 0.413758,3.288612 0.888505,4.868439 0.488643,1.626066 1.318008,3.129709 1.999173,4.684985 0.601612,1.37364 1.661835,2.717877 1.843815,4.103624 -1.526606,-0.50973 -3.124637,-0.773131 -4.734078,-0.780314 -8.373378,8e-6 -15.16134,6.787972 -15.161348,15.16135 8e-6,8.373377 6.78797,16.748839 15.161348,16.748847 6.506329,-0.0064 12.28318,-4.163399 14.35623,-10.330635 2.072442,6.165437 7.846637,10.321999 14.351061,10.330635 8.373377,-8e-6 15.161342,-8.37547 15.16135,-16.748847 -8e-6,-8.37338 -6.78797,-15.161342 -15.16135,-15.16135 -1.608961,0.0054 -3.206806,0.266888 -4.73356,0.774631 0.181721,-1.383874 1.242015,-2.726121 1.843299,-4.097941 0.681657,-1.555186 1.511398,-3.058803 2.00006,-4.684985 0.47472,-1.579779 0.976511,-3.22127 0.887618,-4.868439 -0.120033,-2.224225 -0.737324,-4.506364 -1.89911,-6.406844 -1.24012,-2.02863 -3.09817,-3.7424 -5.162473,-4.92218 -2.19311,-1.25339 -4.763471,-2.07124 -7.28948,-2.07124 z"
       id="path1562"
       inkscape:connector-curvature="0"
       sodipodi:nodetypes="aaaaaacccccccccaaaaaa" />
    <path
       style="opacity:1;fill:#ff0000;fill-opacity:1;fill-rule:evenodd;stroke:#000000;stroke-width:7.99999857;stroke-linecap:round;stroke-linejoin:round;stroke-miterlimit:4;stroke-dasharray:none;stroke-opacity:1;paint-order:fill markers stroke"
       d="M 246.76367 348.42383 C 237.21656 348.42383 227.50181 351.51473 219.21289 356.25195 C 211.41079 360.71096 204.38824 367.18824 199.70117 374.85547 C 195.31016 382.03842 192.97638 390.66374 192.52344 399.07031 C 192.18782 405.29603 194.08653 411.49973 195.88086 417.4707 C 197.72769 423.61648 200.86304 429.29951 203.4375 435.17773 C 205.16884 439.13086 207.90142 443.02031 209.41211 446.96289 A 74.865116 74.865109 0 0 0 175.95508 438.95312 A 74.865116 74.865109 0 0 0 101.08984 513.81641 A 74.865116 74.865109 0 0 0 117.45117 560.35547 C 154.93685 583.10712 199.3296 595.5865 246.76367 595.65039 C 294.18367 595.62129 338.54778 583.19938 376.01172 560.51367 A 74.865116 74.865109 0 0 0 392.4375 513.81641 A 74.865116 74.865109 0 0 0 317.57227 438.95312 A 74.865116 74.865109 0 0 0 284.09766 446.99805 C 285.60364 443.0429 288.3517 439.14325 290.08984 435.17773 C 292.66617 429.29985 295.80153 423.61693 297.64844 417.4707 C 299.44266 411.49988 301.33988 405.2958 301.00391 399.07031 C 300.55024 390.66377 298.21717 382.03842 293.82617 374.85547 C 289.1391 367.18824 282.11653 360.71096 274.31445 356.25195 C 266.02553 351.51473 256.31079 348.42383 246.76367 348.42383 z "
       transform="matrix(0.26458333,0,0,0.26458333,-13.225202,-170.05348)"
       id="path1562-4" />
    <path
       style="fill:none;fill-rule:evenodd;stroke:#000000;stroke-width:2.11666656;stroke-linecap:round;stroke-linejoin:round;stroke-miterlimit:4;stroke-dasharray:none;stroke-opacity:1"
       inkscape:connector-curvature="0"
       d="m 116.29537,-168.99515 -0.29366,94.538465 c -1.42978,37.540974 -29.679017,61.981434 -63.937459,62.002455 -34.22762,-0.0461 -62.48744,-24.497199 -63.93745,-62.002455 l -0.29367,-94.538465 h 64.22958 z"
       id="path10563-0-6-2-6-7"
       sodipodi:nodetypes="ccccccc" />
    <path
       style="fill:#ffffff;stroke:#000000;stroke-width:2.11666656;stroke-linecap:round;stroke-linejoin:round;stroke-miterlimit:4;stroke-dasharray:none;stroke-opacity:1"
       d="m -144.69341,-148.9361 c 7.46853,-1.40879 14.98857,-2.54447 22.54004,-3.40401 14.29265,-1.62684 28.70847,-2.26326 43.07943,-1.62923 5.880698,0.25945 11.782143,0.73602 17.502152,2.12578 5.720009,1.38975 11.28112,3.72938 15.870535,7.41546 4.236169,3.40237 7.56835,7.92003 9.568015,12.97202 -5.65379,-2.19897 -11.514827,-3.86473 -17.480027,-4.968 -11.798453,-2.18213 -23.883528,-2.15225 -35.880056,-1.93201 -9.381834,0.17224 -18.792909,0.45934 -28.060039,1.93201 -5.10279,0.8109 -10.14861,1.98005 -15.08803,3.496 -0.77423,-0.81901 -1.42747,-1.7522 -1.932,-2.76 -0.68726,-1.37279 -1.09655,-2.88402 -1.196,-4.41601 -0.61282,1.47616 -1.41921,2.87183 -2.39201,4.14001 -1.72657,2.25081 -3.98197,4.09325 -6.53201,5.33601 0.19065,-3.15477 0.28271,-6.3155 0.276,-9.47602 -0.006,-2.94585 -0.0983,-5.89152 -0.276,-8.83201 z"
       id="path1657"
       inkscape:connector-curvature="0"
       inkscape:path-effect="#path-effect1659"
       inkscape:original-d="m -144.69341,-148.9361 c 0,0 14.97493,-2.69197 22.54004,-3.40401 14.30684,-1.34657 28.813272,-3.35428 43.07943,-1.62923 11.486271,1.38891 23.868766,2.94283 33.372687,9.54124 4.413539,3.06424 9.568015,12.97202 9.568015,12.97202 0,0 -11.505215,-3.97095 -17.480027,-4.968 -11.813981,-1.97146 -23.903046,-2.02154 -35.880056,-1.93201 -9.375229,0.0701 -18.787339,0.54749 -28.060039,1.93201 -5.10598,0.76238 -15.08803,3.496 -15.08803,3.496 0,0 -1.4561,-1.74282 -1.932,-2.76 -0.64627,-1.38133 -1.196,-4.41601 -1.196,-4.41601 0,0 -1.35933,2.92604 -2.39201,4.14001 -1.82168,2.14149 -6.53201,5.33601 -6.53201,5.33601 0,0 0.27935,-6.31601 0.276,-9.47602 -0.003,-2.94544 -0.276,-8.83201 -0.276,-8.83201 z"
       sodipodi:nodetypes="caaacaaacacacac"
       transform="translate(142.47771,-1.9428785)" />
    <path
       style="fill:none;stroke:#000000;stroke-width:2.11666656;stroke-linecap:round;stroke-linejoin:round;stroke-miterlimit:4;stroke-dasharray:none;stroke-opacity:1"
       d="m -137.46305,-145.33711 c 10.24308,-0.96871 20.49584,-1.83514 30.75623,-2.59911 14.138299,-1.05271 28.504919,-1.89648 42.365755,1.08294 5.389453,1.15847 10.655617,2.88964 15.68122,5.15494"
       id="path1661"
       inkscape:connector-curvature="0"
       inkscape:path-effect="#path-effect1663"
       inkscape:original-d="m -137.46305,-145.33711 c 10.22347,-0.80888 20.47205,-2.29692 30.75623,-2.59911 14.120437,-0.41491 28.446656,-1.32903 42.365755,1.08294 5.421468,0.93945 10.021182,3.50857 15.68122,5.15494"
       sodipodi:nodetypes="caac"
       transform="translate(142.47771,-1.9428785)" />
  </g>
</svg>

<svg xmlns="http://www.w3.org/2000/svg" width="493.527" height="599.651" viewBox="0 0 130.579 158.658"><path style="fill:#fff;fill-rule:evenodd;stroke:none;stroke-width:2.11666656;stroke-linecap:round;stroke-linejoin:round;stroke-miterlimit:4;stroke-dasharray:none;stroke-opacity:1" d="m116.295-168.995-.293 94.538c-1.43 37.541-29.68 61.982-63.938 62.003-34.227-.046-62.487-24.497-63.937-62.003l-.294-94.538h64.23z" transform="translate(13.225 170.053)"/><path style="opacity:1;fill:red;fill-opacity:1;fill-rule:evenodd;stroke:#000;stroke-width:7.99999952;stroke-linecap:round;stroke-linejoin:round;stroke-miterlimit:4;stroke-dasharray:none;stroke-opacity:1;paint-order:fill markers stroke" d="m4 4 .584 188.252h484.357L489.527 4H4z" transform="scale(.26458)"/><path style="opacity:1;fill:red;fill-opacity:1;fill-rule:evenodd;stroke:#000;stroke-width:2.11666632;stroke-linecap:round;stroke-linejoin:round;stroke-miterlimit:4;stroke-dasharray:none;stroke-opacity:1;paint-order:fill markers stroke" d="M52.064-110.572c-2.526 0-5.096.818-7.29 2.071-2.064 1.18-3.922 2.894-5.162 4.923-1.161 1.9-1.779 4.182-1.899 6.406-.089 1.648.414 3.289.889 4.869.488 1.626 1.318 3.13 1.999 4.685.601 1.373 1.662 2.718 1.844 4.103a15.161 15.161 0 0 0-4.734-.78c-8.374 0-15.162 6.788-15.162 15.161 0 8.374 6.788 16.75 15.162 16.75a15.161 15.161 0 0 0 14.356-10.331 15.161 15.161 0 0 0 14.35 10.33c8.374 0 15.162-8.375 15.162-16.749 0-8.373-6.788-15.16-15.161-15.16a15.161 15.161 0 0 0-4.734.774c.182-1.384 1.242-2.726 1.844-4.098.681-1.555 1.511-3.059 2-4.685.474-1.58.976-3.221.887-4.869-.12-2.224-.737-4.506-1.899-6.406-1.24-2.03-3.098-3.743-5.162-4.923-2.193-1.253-4.764-2.07-7.29-2.07z" transform="translate(13.225 170.053)"/><path style="opacity:1;fill:red;fill-opacity:1;fill-rule:evenodd;stroke:#000;stroke-width:7.99999857;stroke-linecap:round;stroke-linejoin:round;stroke-miterlimit:4;stroke-dasharray:none;stroke-opacity:1;paint-order:fill markers stroke" d="M246.764 348.424c-9.547 0-19.262 3.09-27.551 7.828-7.802 4.459-14.825 10.936-19.512 18.603-4.39 7.183-6.725 15.809-7.178 24.215-.335 6.226 1.564 12.43 3.358 18.4 1.847 6.146 4.982 11.83 7.556 17.708 1.732 3.953 4.464 7.842 5.975 11.785a74.865 74.865 0 0 0-33.457-8.01 74.865 74.865 0 0 0-74.865 74.863 74.865 74.865 0 0 0 16.361 46.54c37.486 22.751 81.879 35.23 129.313 35.294 47.42-.029 91.784-12.45 129.248-35.136a74.865 74.865 0 0 0 16.425-46.698 74.865 74.865 0 0 0-74.865-74.863 74.865 74.865 0 0 0-33.474 8.045c1.506-3.955 4.254-7.855 5.992-11.82 2.576-5.878 5.712-11.561 7.558-17.707 1.795-5.971 3.692-12.175 3.356-18.4-.454-8.407-2.787-17.033-7.178-24.216-4.687-7.667-11.71-14.144-19.512-18.603-8.288-4.737-18.003-7.828-27.55-7.828z" transform="scale(.26458)"/><path style="fill:none;fill-rule:evenodd;stroke:#000;stroke-width:2.11666656;stroke-linecap:round;stroke-linejoin:round;stroke-miterlimit:4;stroke-dasharray:none;stroke-opacity:1" d="m116.295-168.995-.293 94.538c-1.43 37.541-29.68 61.982-63.938 62.003-34.227-.046-62.487-24.497-63.937-62.003l-.294-94.538h64.23z" transform="translate(13.225 170.053)"/><path style="fill:#fff;stroke:#000;stroke-width:2.11666656;stroke-linecap:round;stroke-linejoin:round;stroke-miterlimit:4;stroke-dasharray:none;stroke-opacity:1" d="M-144.693-148.936a311.933 311.933 0 0 1 22.54-3.404c14.292-1.627 28.708-2.263 43.08-1.63 5.88.26 11.781.737 17.501 2.126 5.72 1.39 11.281 3.73 15.87 7.416a31.685 31.685 0 0 1 9.569 12.972 96.85 96.85 0 0 0-17.48-4.968c-11.799-2.182-23.884-2.152-35.88-1.932-9.382.172-18.793.46-28.06 1.932-5.103.81-10.149 1.98-15.088 3.496a11.554 11.554 0 0 1-1.932-2.76 11.571 11.571 0 0 1-1.196-4.416 18.408 18.408 0 0 1-2.392 4.14 18.462 18.462 0 0 1-6.532 5.336 151.761 151.761 0 0 0 0-18.308z" transform="translate(155.703 168.11)"/><path style="fill:none;stroke:#000;stroke-width:2.11666656;stroke-linecap:round;stroke-linejoin:round;stroke-miterlimit:4;stroke-dasharray:none;stroke-opacity:1" d="M-137.463-145.337a1545.6 1545.6 0 0 1 30.756-2.6c14.138-1.052 28.505-1.896 42.366 1.084a78.173 78.173 0 0 1 15.681 5.155" transform="translate(155.703 168.11)"/></svg>
